X:1
T:Title
%%score { ( 1 2 ) | ( 3 4 ) }
L:1/8
M:4/2
K:C
V:1 treble nm="Grand Piano"
V:2 treble 
V:3 bass 
V:4 bass 
V:1
 z4 A4 z8 | c4 B4 z8 | z4 .G4 E4 z4 | [CE]4 [B,D]4 C8 | [CG]4 G2 F2 [CE]4 [DE]4 | %5
 A2- [EA]2 A2- [CA]2 [B,^G]8 | [EA]4 [EB]4 [Ec]4 [FB]4 | [EA]4 [E^G]4 [EA]8 | [FA]8 [EA]8 |] %9
V:2
 [CE]4 B,2 A,2 [B,^G]4 [CA]2 [B,B]2 | A,2 C2 E2 D2 [CA]8 | [CG]4 B,2- [B,F]2 C2 B,2 [A,F]4 | x16 | %4
 z4 C4 z8 | .C4 .D4 z8 | x16 | x16 | x16 |] %9
V:3
 A,,4 [C,E,]4 E,4 [_E,^F,]4 | E,2 A,2 [E,,^G,]4 [A,,A,]8 | [E,,C,]4 [G,,D,]4 [C,E,]4 E,2 D,2 | %3
 [G,,E,]4 G,2 F,2 [C,E,]8 | [E,,G,]4 [F,,A,]4 [C,G,]4 ^G,2- [B,,G,]2 | A,2 C2 B,2 A,2 [E,B,]8 | %6
 [^F,A,]4 E2 D2 [A,C]4 [D,D]4 | z4 .B,4 z8 | [D,D]8 [A,,^C]8 |] %9
V:4
 x16 | x16 | z8 z4 F,,4 | z4 G,,4 z8 | z8 z4 .C,4 | A,,4 C,4 z8 | z4 ^G,4 z8 | %7
 [E,C]4 E,,2- [E,,D]2 [A,,C]8 | x16 |] %9

